X: 1
T: The Maids Of Mount Kisco
R: reel
M: 4/4
L: 1/8
K: Ador
|: AG | "Am" EAA2 BGAG | EAA2 BGAG     | "Em" EGG2 AGG2 | EGG2 EGDG         |
        "Am" EAAG ABAG | EAAG AG A/B/d | "Em" eggg afge | "G" dBGB "Am" A2 :|
   AG | "Am" A2AB "D"  dBAB | "G" G2BG DGBG | "Am" AGAB "G" dG B/c/d | "Em" egge dBAG    |
        "Am" A2AB "D"  dBAB | "G" G2BG DGBG | "Am" AGAB "G" dG B/c/d | "Em" egge d2     ||
|: Bd | "Am" eaa2 "G"  bgaf | "G" gedB GABd | "Am" eaa2 "G" bgaf     | "Em" ge d/e/f g2eg    |
        "Am" a2af "Em" gage | "G" dedB GABd | "Am" eAA2 efge         | "G" dBGB "Am" A2 :|


